images/patterns/2.svg

<?xml version="1.0" encoding="utf-8"?>
<!-- Generator: Adobe Illustrator 22.0.1, SVG Export Plug-In . SVG Version: 6.00 Build 0)  -->
<svg version="1.1" id="Layer_1" xmlns="http://www.w3.org/2000/svg" xmlns:xlink="http://www.w3.org/1999/xlink" x="0px" y="0px"
	 viewBox="0 0 120 120" style="enable-background:new 0 0 120 120;" xml:space="preserve">
<g>
	<path d="M0,0h60v10H0V0z"/>
	<path d="M10,0v60H0V0H10z"/>
	<path d="M20,20h40v10H20V20z"/>
	<path d="M30,20v40H20V20H30z"/>
	<path d="M40,40h20v10H40V40z"/>
	<path d="M50,40v20H40V40H50z"/>
</g>
<g>
	<path d="M60,60h60V50H60V60z"/>
	<path d="M70,60V0H60v60H70z"/>
	<path d="M80,40h40V30H80V40z"/>
	<path d="M90,40V0H80v40H90z"/>
	<path d="M100,20h20V10h-20V20z"/>
	<path d="M110,20V0h-10v20H110z"/>
</g>
<path d="M60,60H0v10h60V60z"/>
<path d="M50,60v60h10V60H50z"/>
<path d="M40,80H0v10h40V80z"/>
<path d="M30,80v40h10V80H30z"/>
<path d="M20,100H0v10h20V100z"/>
<path d="M10,100v20h10v-20H10z"/>
<g>
	<path d="M120,120H60v-10h60V120z"/>
	<path d="M110,120V60h10v60H110z"/>
	<path d="M100,100H60V90h40V100z"/>
	<path d="M90,100V60h10v40H90z"/>
	<path d="M80,80H60V70h20V80z"/>
	<path d="M70,80V60h10v20H70z"/>
</g>
</svg>

<?xml version="1.0" encoding="UTF-8"?>
<!DOCTYPE svg PUBLIC "-//W3C//DTD SVG 1.1//EN" "http://www.w3.org/Graphics/SVG/1.1/DTD/svg11.dtd">
<svg version="1.1" xmlns="http://www.w3.org/2000/svg" xmlns:xlink="http://www.w3.org/1999/xlink" x="0" y="0" width="120" height="120" viewBox="0, 0, 120, 120">
  <g id="Background">
    <rect x="0" y="0" width="120" height="120" fill="#FFFFFF"/>
  </g>
  <g id="Layer_3_Copy_Copy_Copy">
    <g>
      <path d="M0,0 L60,0 L60,10 L0,10 z" fill="#000000"/>
      <path d="M10,0 L10,60 L-0,60 L-0,0 z" fill="#000000"/>
      <path d="M20,20 L60,20 L60,30 L20,30 z" fill="#000000"/>
      <path d="M30,20 L30,60 L20,60 L20,20 z" fill="#000000"/>
      <path d="M40,40 L60,40 L60,50 L40,50 z" fill="#000000"/>
      <path d="M50,40 L50,60 L40,60 L40,40 z" fill="#000000"/>
    </g>
    <g>
      <path d="M60,60 L120,60 L120,50 L60,50 z" fill="#000000"/>
      <path d="M70,60 L70,0 L60,0 L60,60 z" fill="#000000"/>
      <path d="M80,40 L120,40 L120,30 L80,30 z" fill="#000000"/>
      <path d="M90,40 L90,0 L80,0 L80,40 z" fill="#000000"/>
      <path d="M100,20 L120,20 L120,10 L100,10 z" fill="#000000"/>
      <path d="M110,20 L110,0 L100,0 L100,20 z" fill="#000000"/>
    </g>
    <g>
      <path d="M60,60 L0,60 L0,70 L60,70 z" fill="#000000"/>
      <path d="M50,60 L50,120 L60,120 L60,60 z" fill="#000000"/>
      <path d="M40,80 L-0,80 L-0,90 L40,90 z" fill="#000000"/>
      <path d="M30,80 L30,120 L40,120 L40,80 z" fill="#000000"/>
      <path d="M20,100 L0,100 L0,110 L20,110 z" fill="#000000"/>
      <path d="M10,100 L10,120 L20,120 L20,100 z" fill="#000000"/>
    </g>
    <g>
      <path d="M120,120 L60,120 L60,110 L120,110 z" fill="#000000"/>
      <path d="M110,120 L110,60 L120,60 L120,120 z" fill="#000000"/>
      <path d="M100,100 L60,100 L60,90 L100,90 z" fill="#000000"/>
      <path d="M90,100 L90,60 L100,60 L100,100 z" fill="#000000"/>
      <path d="M80,80 L60,80 L60,70 L80,70 z" fill="#000000"/>
      <path d="M70,80 L70,60 L80,60 L80,80 z" fill="#000000"/>
    </g>
  </g>
</svg>
